X:1
T:Title
%%score { ( 1 4 5 ) | ( 2 3 ) }
L:1/8
M:6/8
K:A
V:1 treble nm="Grand Piano"
V:4 treble 
V:5 treble 
V:2 bass 
V:3 bass 
V:1
 z3 z2[Q:1/4=100] [CE] | [CA]2 [CA] [CA]2 [EG] | F2 F F2 F | [A,CE]2 [CEA] [CEA]2 [A,EA] | %4
[M:5/8] [B,EG]2 [EA] [GB]2 |[M:1/8] [GB] |[M:3/4] [GB]2 [GB][GB] ^A[EGB] | %7
[M:7/8] [Ac]-[CAc][Ac] [Fd]3 [Fd] |[M:3/4] [Ec]2 [Ec] [EB]2 [EA] |[M:5/8] [Ec]2 [DB] [CA]2 | %10
[M:1/8] [Ec]/[DB]/ |[M:3/4] [CA]>[CA] [CA][CA] [EG][EA] | B6 | B2 [FB][GB] AB |[M:5/8] c-c- c3 | %15
[M:1/8] c |[M:3/4] c>c c B3 |[M:7/8] A>AA [FA]3 F |[M:13/16] E>AAG[EFA][DGB]3/2 |[M:3/4] A6 |] %20
V:2
 z3 z2 [A,,A,] | [A,,A,]2 [A,,A,] [A,,A,]2 [C,A,] | [D,A,D]2 [D,A,D] [D,A,D]2 [D,A,D] | %3
 A,,2 A,, A,,2 C, |[M:5/8] B,,2 A,, [E,E]2 |[M:1/8] [E,E] |[M:3/4] [E,E]2 .[E,E]2 =GE, | %7
[M:7/8] A,=G,[F,A,] [D,A,]3 [D,A,] |[M:3/4] [A,,A,]2 [A,,A,] [B,,G,]2 [C,A,] | %9
[M:5/8] [E,A,]2 [E,G,] [A,,A,]2 |[M:1/8] [A,,A,] | %11
[M:3/4] [A,,A,]>[A,,A,] [A,,A,][A,,A,] [B,,E,][C,A,] | .[E,G,E]2 .[E,G,].[E,G,] z [E,G,E] | %13
 [E,G,E]2 [E,B,]D- [F,DF][K:treble][G,DE] |[M:5/8] .E z [A,E] [A,E]2 |[M:1/8] [A,EA] | %16
[M:3/4] [A,EA]>[K:bass][A,CE] [A,E] [E,G,E]3 |[M:7/8] [F,A,C]>[F,CF][F,CF] [D,D]3 [D,A,D] | %18
[M:13/16] [E,A,C]>[E,CE][E,CE][E,B,E][A,,E,][E,,E,]3/2 |[M:3/4] .A,,2 .A,, A,,3 |] %20
V:3
 x6 | x6 | x6 | x6 |[M:5/8] x5 |[M:1/8] x |[M:3/4] z2 z .[E,E]3 |[M:7/8] x7 |[M:3/4] x6 | %9
[M:5/8] x5 |[M:1/8] x |[M:3/4] x6 | x6 | z2 z E, z2[K:treble] |[M:5/8] [A,C]2 z z2 |[M:1/8] x | %16
[M:3/4] x3/2[K:bass] x9/2 |[M:7/8] x7 |[M:13/16] x13/2 |[M:3/4] x6 |] %20
V:4
 x6 | x6 | x6 | x6 |[M:5/8] x5 |[M:1/8] x |[M:3/4] x6 |[M:7/8] E z z z z z2 |[M:3/4] x6 | %9
[M:5/8] x5 |[M:1/8] x |[M:3/4] x6 | z2 .E.E z B | x6 |[M:5/8] z2 A A2 |[M:1/8] x |[M:3/4] x6 | %17
[M:7/8] x7 |[M:13/16] x13/2 |[M:3/4] .[CE]2 .[DF]E z2 |] %20
V:5
 x6 | x6 | x6 | x6 |[M:5/8] x5 |[M:1/8] x |[M:3/4] x6 |[M:7/8] x7 |[M:3/4] x6 |[M:5/8] x5 | %10
[M:1/8] x |[M:3/4] x6 | x6 | x6 |[M:5/8] x5 |[M:1/8] x |[M:3/4] x6 |[M:7/8] x7 |[M:13/16] x13/2 | %19
[M:3/4] z2 z C3 |] %20

